src/actions/symbolic/view-mirror-symbolic.svg

<svg width="16" height="16" version="1.1" xmlns="http://www.w3.org/2000/svg">
 <path d="m2 0c-0.861 0-1.4299 0.32022-1.7129 0.69922-0.283 0.376-0.28711 0.80078-0.28711 0.80078v13s0.0041094 0.42378 0.28711 0.80078c0.284 0.379 0.85189 0.69922 1.7129 0.69922a0.5 0.5 0 0 0 0.30664-0.10352l5.5-4.25a0.5 0.5 0 0 0 0.19336-0.39648v-6.75a0.5 0.5 0 0 0-0.20508-0.4043l-5.5-4a0.5 0.5 0 0 0-0.29492-0.095703zm0 1.1191 5 3.6367v6.248l-5 3.8633v-13.748z" fill="currentColor"/>
 <path d="m14 0a0.5 0.5 0 0 0-0.295 0.096l-5.5 4a0.5 0.5 0 0 0-0.205 0.404v6.75a0.5 0.5 0 0 0 0.193 0.396l5.5 4.25a0.5 0.5 0 0 0 0.307 0.104c0.861 0 1.43-0.321 1.713-0.7 0.283-0.377 0.287-0.8 0.287-0.8v-13s-4e-3 -0.423-0.287-0.8c-0.284-0.38-0.853-0.7-1.713-0.7zm0 1.12v13.747l-5-3.863v-6.248z" fill="currentColor" opacity=".5"/>
</svg>

<svg xmlns="http://www.w3.org/2000/svg" width="16" height="16"><path fill="currentColor" d="M2 0C1.139 0 .57.32.287.7.004 1.074 0 1.5 0 1.5v13s.004.424.287.8c.284.38.852.7 1.713.7a.5.5 0 0 0 .307-.104l5.5-4.25A.5.5 0 0 0 8 11.25V4.5a.5.5 0 0 0-.205-.404l-5.5-4A.5.5 0 0 0 2 0m0 1.12 5 3.636v6.248l-5 3.863z"/><path fill="currentColor" d="M14 0a.5.5 0 0 0-.295.096l-5.5 4A.5.5 0 0 0 8 4.5v6.75a.5.5 0 0 0 .193.396l5.5 4.25A.5.5 0 0 0 14 16c.861 0 1.43-.321 1.713-.7.283-.377.287-.8.287-.8v-13s-.004-.423-.287-.8C15.429.32 14.86 0 14 0m0 1.12v13.747l-5-3.863V4.756z" opacity=".5"/></svg>
